.local/share/icons/Gruvbox-Plus-Dark/mimetypes/scalable/extension.svg

<svg width="256" height="256" viewBox="0 0 256 256" fill="none" xmlns="http://www.w3.org/2000/svg">
<g opacity="0.4" filter="url(#filter0_f)">
<path d="M55.0839 15.5636H155.608L216.009 75.7129L216.011 224.609C216.011 233.52 208.749 240.737 199.838 240.737H55.0838C46.1734 240.737 39 233.564 39 224.654V31.6474C39 22.737 46.1734 15.5636 55.0838 15.5636H55.0839Z" fill="#282828"/>
</g>
<path d="M55.0839 15H155.608L216.009 75.1493L216.011 224.045C216.011 232.956 208.749 240.174 199.838 240.174H55.0838C46.1734 240.174 39 233 39 224.09V31.0838C39 22.1734 46.1734 15 55.0838 15H55.0839Z" fill="#ebdbb2"/>
<path fill-rule="evenodd" clip-rule="evenodd" d="M155.609 22.9787H55.0839C50.58 22.9787 46.9787 26.5799 46.9787 31.0838V224.09C46.9787 228.594 50.5799 232.195 55.0838 232.195H199.838C204.371 232.195 208.032 228.521 208.032 224.046V75.1493L155.609 22.9787ZM155.608 15H55.0839C46.1735 15 39 22.1734 39 31.0838V224.09C39 233 46.1734 240.174 55.0838 240.174H199.838C208.749 240.174 216.011 232.956 216.011 224.045L216.009 75.1493L155.608 15Z" fill="url(#paint0_linear)"/>
<path d="M117.466 68.0305C110.258 67.555 102.148 72.6751 102.436 80.5631C101.584 85.2584 106.111 88.7616 105.914 92.9981C103.248 94.1677 101.22 94.1677 99.3426 94.1677H68.1029V125.091C70.5416 130.402 75.5214 122.818 79.4547 123.638C86.9717 122.064 93.7371 128.654 94.0963 135.936C95.096 142.882 92.4074 151.913 84.536 153.311C80.2903 154.028 75.7205 153.243 72.2344 150.646C68.0356 148.112 67.7681 153.673 68.1029 156.397V187.898H104.031C109.341 185.458 101.756 180.477 102.577 176.543C101.005 169.028 107.592 162.256 114.873 161.899C121.82 160.902 130.848 163.588 132.246 171.461C132.962 175.709 132.178 180.278 129.582 183.766C127.047 187.964 132.608 188.231 135.332 187.898H161.822V152.129C164.319 146.772 169.295 154.609 173.355 153.443C179.875 154.726 186.482 150.065 187.465 143.502C189.129 136.239 187.066 126.605 179.116 124.057C174.079 122.342 169.061 124.533 164.81 127.121C160.897 127.674 161.945 122.937 161.822 120.495V94.1677H131.066C125.708 91.6702 133.545 86.6937 132.378 82.632C133.66 76.1119 129.001 69.5048 122.44 68.5207C120.806 68.1692 119.133 68.0315 117.466 68.0305V68.0305Z" fill="url(#paint1_linear)"/>
<path opacity="0.25" d="M155.608 17V61.2306C155.608 70.141 162.867 77.1605 171.777 77.1605L216.009 77.1493V75.1493L155.608 17Z" fill="#282828"/>
<path d="M155.608 15V59.2306C155.608 68.141 162.867 75.1605 171.777 75.1605L216.009 75.1493L155.608 15Z" fill="url(#paint2_linear)"/>
<defs>
<filter id="filter0_f" x="23.8778" y="0.441412" width="207.255" height="255.418" filterUnits="userSpaceOnUse" color-interpolation-filters="sRGB">
<feFlood flood-opacity="0" result="BackgroundImageFix"/>
<feBlend mode="normal" in="SourceGraphic" in2="BackgroundImageFix" result="shape"/>
<feGaussianBlur stdDeviation="7.5611" result="effect1_foregroundBlur"/>
</filter>
<linearGradient id="paint0_linear" x1="127.507" y1="15" x2="127.507" y2="240.178" gradientUnits="userSpaceOnUse">
<stop offset="1e-07" stop-color="#689d6a"/>
<stop offset="1" stop-color="#8ec07c"/>
</linearGradient>
<linearGradient id="paint1_linear" x1="128.001" y1="68" x2="128.001" y2="188.002" gradientUnits="userSpaceOnUse">
<stop offset="1e-07" stop-color="#689d6a"/>
<stop offset="1" stop-color="#8ec07c"/>
</linearGradient>
<linearGradient id="paint2_linear" x1="185.809" y1="15" x2="185.809" y2="75.1616" gradientUnits="userSpaceOnUse">
<stop offset="1e-07" stop-color="#689d6a"/>
<stop offset="1" stop-color="#8ec07c"/>
</linearGradient>
</defs>
</svg>

<svg width="256" height="256" fill="none" version="1.1" viewBox="0 0 256 256" xmlns="http://www.w3.org/2000/svg">
  <path d="m55.08 15h100.5l60.4 60.15 2e-3 148.9c0 8.911-7.262 16.13-16.17 16.13h-144.8c-8.91 0-16.08-7.174-16.08-16.08v-193c0-8.91 7.173-16.08 16.08-16.08h1e-4z" fill="#ebdbb2"/>
  <path d="m155.6 22.98h-100.5c-4.504 0-8.105 3.601-8.105 8.105v193c0 4.504 3.601 8.105 8.105 8.105h144.8c4.533 0 8.194-3.674 8.194-8.149v-148.9l-52.42-52.17zm-1e-3 -7.979h-100.5c-8.91 0-16.08 7.173-16.08 16.08v193c0 8.91 7.173 16.08 16.08 16.08h144.8c8.911 0 16.17-7.218 16.17-16.13l-2e-3 -148.9-60.4-60.15z" clip-rule="evenodd" fill="url(#paint0_linear)" fill-rule="evenodd"/>
  <path d="m117.5 68.03c-7.208-0.4755-15.32 4.645-15.03 12.53-0.852 4.695 3.675 8.198 3.478 12.44-2.666 1.17-4.694 1.17-6.571 1.17h-31.24v30.92c2.439 5.311 7.418-2.273 11.35-1.453 7.517-1.574 14.28 5.016 14.64 12.3 0.9997 6.946-1.689 15.98-9.56 17.38-4.246 0.717-8.816-0.068-12.3-2.665-4.199-2.534-4.466 3.027-4.132 5.751v31.5h35.93c5.31-2.44-2.275-7.421-1.454-11.36-1.572-7.515 5.015-14.29 12.3-14.64 6.947-0.997 15.98 1.689 17.37 9.562 0.716 4.248-0.068 8.817-2.664 12.3-2.535 4.198 3.026 4.465 5.75 4.132h26.49v-35.77c2.497-5.357 7.473 2.48 11.53 1.314 6.52 1.283 13.13-3.378 14.11-9.941 1.664-7.263-0.399-16.9-8.349-19.44-5.037-1.715-10.06 0.476-14.31 3.064-3.913 0.553-2.865-4.184-2.988-6.626v-26.33h-30.76c-5.358-2.498 2.479-7.474 1.312-11.54 1.282-6.52-3.377-13.13-9.938-14.11-1.634-0.3515-3.307-0.4892-4.974-0.4902z" fill="url(#paint1_linear)"/>
  <path d="m155.6 17v44.23c0 8.91 7.259 15.93 16.17 15.93l44.23-0.0112v-2l-60.4-58.15z" fill="#282828" opacity=".25"/>
  <path d="m155.6 15v44.23c0 8.91 7.259 15.93 16.17 15.93l44.23-0.0112-60.4-60.15z" fill="url(#paint2_linear)"/>
  <defs>
    <linearGradient id="paint0_linear" x1="127.5" x2="127.5" y1="15" y2="240.2" gradientUnits="userSpaceOnUse">
      <stop stop-color="#689d6a" offset="1e-7"/>
      <stop stop-color="#8ec07c" offset="1"/>
    </linearGradient>
    <linearGradient id="paint1_linear" x1="128" x2="128" y1="68" y2="188" gradientUnits="userSpaceOnUse">
      <stop stop-color="#689d6a" offset="1e-7"/>
      <stop stop-color="#8ec07c" offset="1"/>
    </linearGradient>
    <linearGradient id="paint2_linear" x1="185.8" x2="185.8" y1="15" y2="75.16" gradientUnits="userSpaceOnUse">
      <stop stop-color="#689d6a" offset="1e-7"/>
      <stop stop-color="#8ec07c" offset="1"/>
    </linearGradient>
  </defs>
</svg>
